X:1
T:Berceuse
T:Faure   arr.Dempsey
%%score ( 1 2 )
L:1/8
Q:1/4=50
M:2/4
K:E
V:1 treble-8 nm="Guitar"
V:2 treble-8 
V:1
"^Andante" [E,B,EG]/B/e/c/ [FAd]B, | [E,B,EG]/B/e/c/ [FAd]B, | b2 b2- | bg ab | ge fg | e2 B2 | %6
 b2 b2- | bg ab | ge"^CVIII............" e'd' | %9
 c'2"^CVII..............                                              CXI..............                                           CXI..............." b2 | %10
 !4!f'2 f'2 | f'd' e'f' | d'b !4!c'd' | b2 f z | f2 !4!f2- | %15
"^CIV.................................................." fg ec | ef dB | d2 c2 | b2 b2- | bg ab | %20
 ge fg | e2 B2 | b2 b2- | bg ab | ge"^CVIII..................." e'd' | c'2 b2 | !0!!4![ee]2 e2 | %27
 ec [BB]A | e2 e2 | !1!!0![ee]c !0!BA | !3!b2 b2 | bg fe | g2 f2 | e2- e z ||[K:C] e2 e2 | ec de | %36
 e2 e2 | cG Ac | Bd g2 | ge g2 | g_B dg | fe de | f2 f2 | fd ef | f2 d2 | dA =Bd | ce a2 | af a2- | %48
 ac ea | g^f ef | g2 g2- | ge ^fg | g2 e2 | eB ^ce | d^f b2 |"^CVI................" bg b2 | %56
 b/B/^f/^d/ b/f/a/e/ | ^g/^d/^f/^c/ ^d/A/B/^F/ |[K:E] B2 B2- | BG AB | GE FG | E2 d2 | B2 B2- | %63
 BG AB | GE FG | E2 e2 | e2 e2- | ec =de | cA Bc | A2 ^d2 | [^GB]2 [Gc]2 | [A=d]2 [A^d]2 | e2 b2- | %73
 bg ab | ge fg | e2 BB, | B2 B2- | BG AB | GE FG | e2 B z | e2 B z | e2 B z | [E,B,EGBe]2 z2 |] %83
V:2
 x4 | x4 | !2![E,G]/!1!B/e/c/ [Fd]B | [E,G]/B/e/c/ [Fd]B | [E,EG]/B/e/c/ [FAd]B, | %5
 [E,B,G]/B/e/c/ [F,DA]B, | [E,G]/B/e/c/ [Fd]B | [E,G]/B/e/c/ [FAd]B | [E,G]/B/e/c/ !1![Ce]!1![Be] | %9
 !3!!2![^Af]/!1!c/f/c/ [Bd]B, | !1!!2!!3![Bfb]/f/b/!1!g/ [c^a]f | %11
 [Bfb]/f/!4!d'/!1!g/ !1![c^a]!1!f | B/f/B/f/ !2!!3!!1![E^Ac]F | [Bd]/F/B/G/ [CF^A]F, | %14
 [B,FB]/F/B/F/ =A,[Fc] | !1![G,F]/G/^B/G/ C[Gc] | [C^A]/F/c/F/ [B,FB]F | D/B/F/B/ [EB][CG] | %18
 !1!D/A/!0!B/A/ FB, | [E,G]/B/e/c/ [Fd]B | [E,G]/B/e/c/ [FAd]B, | [E,B,G]/B/e/c/ [A,Fd]B, | %22
 [E,G]/B/e/c/ [Fd]B | [E,G]/B/e/c/ [FAd]B | [E,B,G]/B/e/c/ [Ce][Be] | [^Af]/c/f/c/ [Bd]B, | %26
 !1!E/d/f/d/ [EG=d]E, | [A,c]/^E/G/E/ [A,F][=EA] | [B,E=d]/=G/A/G/ [B,E^G]E, | %29
 A,/G/!0!B/G/ !1![CA]E | !1!!2![^Df]/!4!^A/!1!c/A/ !0![D=AB]B, | [EB]/G/B/G/ [CE][Gc] | %32
 [A,c]/G/c/G/ [B,DA]B | [E,B,EB]/G/E/B,/ G/E/B,/E,/ ||[K:C] CG/!0!G/ E/C/G/E/ | A,A/A/ E/C/G/E/ | %36
 CG/!0!G/ E/C/G/E/ | CG/!0!G/ E/C/G/E/ | G,>B, G/D/B/G/ | E>B G/E/B/G/ | E,>_B, G/E/_B/G/ | %41
 A,>A G/^C/A/G/ | DA/A/ F/D/A/F/ | _B,>_B F/D/B/F/ | DA/A/ F/D/A/F/ | F>A F/D/A/F/ | %46
 A,>A E/C/A/E/ | D3/2Ad/f/d/ | A,>A E/C/A/E/ | B,>A ^D/B,/A/D/ | EB/!0!B/ G/E/B/G/ | C>c G/E/c/G/ | %52
 EB/!0!B/ G/E/B/G/ | G,>B, G/E/B/G/ | B,B/B/ d/B/B/^F/ | B,B/B/ E/^c/e/c/ | B,^F B^c | %57
 [B,B]A ^F^D |[K:E] E,/B,/E/C/ [F,D]B, | E,/B,/E/C/ [F,D]B, | E,/B,/E/C/ DB, | %61
 [E,B,E]/B/[B,Ge]/c/ [FA][B,B] | E,/B,/E/C/ [F,D]B, | E,/B,/E/C/ [F,D]B, | E,/B,/E/C/ DB, | %65
 [E,B,E]/B/[B,Ge]/c/ [E,Gc][B,G=d] | A,/E/A/F/ [B,=DG]E | A,/E/A/F/ [B,G]E | A,/E/A/F/ [E,=DG]E | %69
 C/E/[Ae]/E/ [^A,F][=Gc] | z/ F/[B,G]/F/ z B, | z/ F/[B,A]/F/ z B, | [E,G]/B/e/c/ [Fd]B | %73
 [E,G]/B/e/c/ [Fd]B | [E,EG]/B/e/c/ [FAd]B, | [E,B,G]/B/e/c/ [Fd] x | [E,G]/B,/E/C/ [F,DA]B, | %77
 E,/B,/E/C/ [F,D]B, | E,/B,/E/C/ [A,D]B, | [E,B,G][B,E] [FA][B,G] | E,[B,E] [FA][B,G] | %81
 E,[B,E] [FA][B,G] | x4 |] %83

